content/images/project/helm.svg

<svg width="36" height="36" viewBox="0 0 36 36" fill="none" xmlns="http://www.w3.org/2000/svg">
<path d="M0 4C0 1.79086 1.79086 0 4 0H32C34.2091 0 36 1.79086 36 4V32C36 34.2091 34.2091 36 32 36H4C1.79086 36 0 34.2091 0 32V4Z" fill="#041B7A"/>
<path d="M15.2438 8.6913C15.657 8.5981 16.0846 8.53966 16.5132 8.51669C20.8123 8.28626 24.4818 11.6444 24.7057 16.014C24.7823 17.5095 24.4285 18.9933 23.716 20.2832C26.7505 19.1878 28.8051 16.1957 28.63 12.7803C28.417 8.62241 24.9184 5.42069 20.8277 5.63995C18.591 5.75983 16.5468 6.9087 15.2438 8.6913Z" fill="white"/>
<path d="M7.79829 32.985C7.74948 32.9388 7.69634 32.8891 7.64383 32.8387C6.56712 31.8067 5.73386 30.6133 5.23053 29.2028C5.08966 28.8081 4.98331 28.4054 5.00217 27.9802C5.00396 27.9399 5.00384 27.8994 5.00663 27.8591C5.04461 27.3103 5.41277 27.0329 5.95034 27.1629C6.1199 27.2067 6.28398 27.2695 6.43946 27.3499C7.02747 27.6442 7.50673 28.0791 7.94744 28.5561C8.73023 29.3873 9.35799 30.3512 9.80118 31.4025C9.81085 31.4276 9.82195 31.452 9.83441 31.4758C9.84048 31.4868 9.85338 31.494 9.88214 31.52C11.9802 30.2642 14.3534 29.5376 16.7963 29.4032C16.7812 29.3286 16.7722 29.2716 16.7581 29.2159C16.5088 28.1867 16.4323 27.1234 16.5317 26.0692C16.5754 25.4375 16.703 24.8143 16.911 24.2161C17.0116 23.901 17.1701 23.6073 17.3783 23.35C17.457 23.2581 17.5478 23.1773 17.6483 23.1098C17.7484 23.0392 17.8677 23.0009 17.9903 23C18.1129 22.9992 18.2327 23.0358 18.3338 23.105C18.5473 23.2493 18.7191 23.4469 18.8322 23.6782C19.0427 24.0704 19.1941 24.4915 19.2813 24.9279C19.48 25.8506 19.5411 26.7975 19.4624 27.738C19.4234 28.312 19.3236 28.8803 19.1645 29.4333C19.7723 29.545 20.3771 29.6316 20.9692 29.772C21.56 29.909 22.1424 30.0797 22.7136 30.2831C23.2895 30.494 23.8528 30.7376 24.4008 31.0128C24.9423 31.2822 25.4577 31.6037 25.9981 31.9101C26.0157 31.8732 26.0411 31.8292 26.0583 31.7822C26.6212 30.2287 27.5907 28.8539 28.8661 27.8005C29.1638 27.5455 29.5057 27.3469 29.8749 27.2145C29.9766 27.1791 30.0819 27.155 30.1888 27.1425C30.7234 27.0814 30.9478 27.4171 30.9873 27.8179C31.0169 28.1134 30.9946 28.4117 30.9213 28.6995C30.726 29.443 30.4172 30.152 30.0056 30.8016C29.4261 31.7358 28.7383 32.5773 27.8642 33.2564C27.8384 33.2765 27.8157 33.3005 27.772 33.3407C28.627 34.1275 29.3885 35.0098 30.0414 35.9703C29.9941 35.9824 29.9459 35.9909 29.8973 35.9956C28.9931 35.9969 28.0889 35.994 27.1847 35.9995C27.1314 35.9982 27.0792 35.9846 27.0322 35.9596C26.9852 35.9346 26.9447 35.899 26.914 35.8556C24.9412 33.7051 22.2815 32.3043 19.389 31.8922C18.5336 31.768 17.6674 31.7346 16.8049 31.7926C14.2333 31.9493 11.7731 32.8953 9.76131 34.5012C9.24181 34.91 8.75724 35.3612 8.31258 35.8501C8.27311 35.8989 8.22275 35.9379 8.16551 35.9639C8.10827 35.9898 8.04573 36.0021 7.98289 35.9997C7.11922 35.9937 6.25547 35.9967 5.39175 35.9967H5.20809C5.26083 35.7917 5.79183 35.0654 6.3929 34.417C6.84114 33.9335 7.31598 33.4745 7.79829 32.985Z" fill="white" fill-opacity="0.3"/>
</svg>

<svg xmlns="http://www.w3.org/2000/svg" width="36" height="36" fill="none" viewBox="0 0 36 36"><path fill="#041B7A" d="M0 4a4 4 0 0 1 4-4h28a4 4 0 0 1 4 4v28a4 4 0 0 1-4 4H4a4 4 0 0 1-4-4V4Z"/><path fill="#fff" d="M15.244 8.691a7.65 7.65 0 0 1 1.27-.174c4.298-.23 7.968 3.127 8.192 7.497a8.006 8.006 0 0 1-.99 4.27c3.034-1.096 5.09-4.088 4.914-7.504-.213-4.158-3.712-7.36-7.802-7.14-2.237.12-4.281 1.269-5.584 3.051Z"/><path fill="#fff" fill-opacity=".3" d="m7.798 32.985-.154-.146c-1.077-1.032-1.91-2.226-2.413-3.636-.141-.395-.248-.798-.229-1.223.002-.04.002-.08.005-.12.038-.55.406-.827.943-.697.17.044.334.107.49.187.587.294 1.067.73 1.507 1.206a9.58 9.58 0 0 1 1.887 2.92c.006.01.02.018.048.044a15.075 15.075 0 0 1 6.914-2.117c-.015-.074-.024-.131-.038-.187a9.556 9.556 0 0 1-.226-3.147 7.144 7.144 0 0 1 .379-1.853c.1-.315.26-.609.467-.866.079-.092.17-.173.27-.24a.6.6 0 0 1 .686-.005c.213.144.385.342.498.573.21.392.362.813.45 1.25.198.923.26 1.87.18 2.81a8.123 8.123 0 0 1-.297 1.695c.607.112 1.212.199 1.804.339a16.06 16.06 0 0 1 1.745.511c.576.211 1.139.455 1.687.73.541.27 1.057.59 1.597.897.018-.037.043-.08.06-.128a9.253 9.253 0 0 1 2.808-3.982 3.22 3.22 0 0 1 1.009-.585c.102-.036.207-.06.314-.073.534-.06.759.275.798.676.03.295.008.594-.066.881a7.476 7.476 0 0 1-.915 2.103c-.58.934-1.268 1.775-2.142 2.454-.026.02-.048.044-.092.085a15.104 15.104 0 0 1 2.27 2.63.951.951 0 0 1-.145.025c-.904 0-1.808-.002-2.712.003a.342.342 0 0 1-.271-.143 12.629 12.629 0 0 0-10.11-4.063A12.51 12.51 0 0 0 9.762 34.5c-.52.409-1.004.86-1.448 1.35a.404.404 0 0 1-.33.149c-.864-.006-1.728-.003-2.591-.003h-.184c.053-.205.584-.932 1.185-1.58.448-.483.923-.943 1.405-1.432Z"/></svg>
